X:912
M:C
L:1/8
Q:1/4=140
K:G
de/f/ g>f e>d B2| d>eB>g A>G E2|de/f/ g>f e>d B<g|G<G B>G A2 G2|
de/f/ g>f e>d B2|c>aB>g A>G E2|g>be>g d>g B<b|G<G B>G A2 G2||
|:G>BA>c B>GA>c|B>GA>F G>B, A,2|G,>B,A,>C B,>D G<B|
g>be>g d>g B<b|G<G B>G A2 G2||

